dist/svg/static/poi-calendar-small.svg

<svg xmlns="http://www.w3.org/2000/svg" width="24" height="24" viewBox="0 0 24 24"><g fill="none" stroke="currentColor"><path d="M18.741 8.595c0-4.033-3.258-7.333-7.241-7.333s-7.241 3.3-7.241 7.333S11.5 22.738 11.5 22.738s7.241-10.11 7.241-14.143z"/><path d="M7.5 7v5.155c0 .204.275.345.5.345h5l2.5-2.5V7"/><path d="M15.5 9.5h-3v3M7 5.5h9"/></g></svg>

<?xml version="1.0" encoding="UTF-8" standalone="no"?>
<svg width="24px" height="24px" viewBox="0 0 24 24" version="1.1" xmlns="http://www.w3.org/2000/svg" xmlns:xlink="http://www.w3.org/1999/xlink">
    <!-- Generator: sketchtool 46.2 (44496) - http://www.bohemiancoding.com/sketch -->
    <title>poi-calendar-small</title>
    <desc>Created with sketchtool.</desc>
    <defs></defs>
    <g id="icons-published" stroke="none" stroke-width="1" fill="none" fill-rule="evenodd">
        <g id="briefing" transform="translate(-644.000000, -1306.000000)"></g>
        <g id="poi-calendar-small" stroke="#000000">
            <path d="M18.7,8.6 C18.7,4.6 15.4,1.3 11.5,1.3 C7.6,1.3 4.3,4.6 4.3,8.6 C4.3,12.6 11.5,22.7 11.5,22.7 C11.5,22.7 18.7,12.6 18.7,8.6 Z" id="Shape"></path>
            <path d="M7.5,7 L7.5,12.2 C7.5,12.4 7.8,12.5 8,12.5 L13,12.5 L15.5,10 L15.5,7" id="Shape"></path>
            <path d="M15.5,9.5 L12.5,9.5 L12.5,12.5 M7,5.5 L16,5.5" id="Shape"></path>
        </g>
    </g>
</svg>
